slack.svg

<svg xmlns="http://www.w3.org/2000/svg" width="148" height="147"><g fill="#FFF" fill-rule="evenodd"><path d="M12.997 77.78c-5.494.042-10.148-3.232-11.864-8.342a13.67 13.67 0 0 1-.178-.583c-1.87-6.544 1.756-13.39 8.255-15.582L113.45 18.35a14.128 14.128 0 0 1 3.807-.556c5.64-.044 10.422 3.302 12.18 8.52l.156.504c1.95 6.816-2.895 12.9-8.7 14.85-.004.003-1.06.36-103.662 35.391a13.49 13.49 0 0 1-4.234.721ZM30.372 129.045c-5.537.04-10.207-3.188-11.903-8.225a13.34 13.34 0 0 1-.18-.579c-1.896-6.622 1.726-13.54 8.247-15.735L130.78 69.263c1.347-.45 2.738-.68 4.137-.693 5.552-.042 10.43 3.35 12.151 8.444l.16.53c1.007 3.521.412 7.478-1.59 10.601-1.492 2.322-6.198 4.366-6.198 4.366L34.8 128.29a14.356 14.356 0 0 1-4.428.757v-.002Z"/><path d="M117.148 129.268a12.798 12.798 0 0 1-12.255-8.723l-34.79-103.34-.174-.58c-1.885-6.59 1.74-13.464 8.237-15.654 1.3-.437 2.644-.665 3.997-.677 2.01-.015 3.955.438 5.787 1.343a12.772 12.772 0 0 1 6.449 7.392l34.787 103.331.101.332c1.954 6.842-1.663 13.72-8.16 15.91a12.935 12.935 0 0 1-3.979.666ZM65.435 146.674a12.803 12.803 0 0 1-12.26-8.73L18.394 34.608a12.797 12.797 0 0 1 8.051-16.23 12.96 12.96 0 0 1 3.985-.668 12.796 12.796 0 0 1 12.257 8.723l34.782 103.34a12.797 12.797 0 0 1-8.06 16.233 12.88 12.88 0 0 1-3.978.667h.004v.001Z"/><path d="m99.997 105.996 24.258-8.294-7.93-23.55-24.286 8.207 7.958 23.637ZM48.364 123.65l24.256-8.293-7.99-23.73-24.28 8.21 8.014 23.813ZM82.727 54.7l24.26-8.283-7.837-23.275-24.305 8.143L82.727 54.7ZM31.088 72.33l24.26-8.283-7.933-23.572-24.305 8.142 7.978 23.713Z"/></g></svg>

<?xml version="1.0" encoding="UTF-8" standalone="no"?>
<svg width="148px" height="147px" viewBox="0 0 148 147" version="1.1" xmlns="http://www.w3.org/2000/svg" xmlns:xlink="http://www.w3.org/1999/xlink" xmlns:sketch="http://www.bohemiancoding.com/sketch/ns">
    <!-- Generator: Sketch 3.4 (15575) - http://www.bohemiancoding.com/sketch -->
    <title>Slice 1</title>
    <desc>Created with Sketch.</desc>
    <defs/>
    <g id="Page-1" stroke="none" stroke-width="1" fill="none" fill-rule="evenodd" sketch:type="MSPage">
        <g id="slack" sketch:type="MSLayerGroup" fill="#FFFFFF">
            <g id="Group" sketch:type="MSShapeGroup">
                <g id="Shape">
                    <path d="M12.997,77.78 C7.503,77.822 2.849,74.548 1.133,69.438 C1.067,69.24 1.01,69.048 0.955,68.855 C-0.915,62.311 2.711,55.465 9.21,53.273 L113.45,18.35 C114.717,17.987 115.993,17.802 117.257,17.794 C122.897,17.75 127.679,21.096 129.437,26.314 L129.593,26.818 C131.543,33.634 126.698,39.718 120.893,41.668 C120.889,41.671 119.833,42.028 17.231,77.059 C15.844,77.53 14.421,77.768 12.997,77.78 L12.997,77.78 L12.997,77.78 Z"/>
                    <path d="M30.372,129.045 C24.835,129.085 20.165,125.857 18.469,120.82 C18.405,120.628 18.344,120.435 18.289,120.241 C16.393,113.619 20.015,106.701 26.536,104.506 L130.78,69.263 C132.127,68.813 133.518,68.583 134.917,68.57 C140.469,68.528 145.347,71.92 147.068,77.014 L147.228,77.544 C148.235,81.065 147.64,85.022 145.638,88.145 C144.146,90.467 139.44,92.511 139.44,92.511 L34.8,128.29 C33.342,128.777 31.855,129.034 30.372,129.047 L30.372,129.045 L30.372,129.045 Z"/>
                    <path d="M117.148,129.268 C111.588,129.311 106.665,125.803 104.893,120.545 L70.103,17.205 L69.929,16.625 C68.044,10.035 71.669,3.161 78.166,0.971 C79.466,0.534 80.81,0.306 82.163,0.294 C84.173,0.279 86.118,0.732 87.95,1.637 C91.013,3.162 93.304,5.787 94.399,9.029 L129.186,112.36 L129.287,112.692 C131.241,119.534 127.624,126.412 121.127,128.602 C119.84,129.031 118.5,129.256 117.148,129.268 L117.148,129.268 L117.148,129.268 Z"/>
                    <path d="M65.435,146.674 C59.875,146.717 54.948,143.209 53.175,137.944 L18.394,34.608 C18.334,34.418 18.274,34.228 18.216,34.033 C16.336,27.445 19.95,20.57 26.445,18.378 C27.74,17.948 29.079,17.721 30.43,17.71 C35.991,17.666 40.915,21.173 42.687,26.433 L77.469,129.773 C77.534,129.953 77.593,130.152 77.646,130.342 C79.53,136.935 75.914,143.814 69.409,146.006 C68.117,146.437 66.78,146.662 65.431,146.673 L65.435,146.673 L65.435,146.674 Z"/>
                    <path d="M99.997,105.996 L124.255,97.702 L116.325,74.152 L92.039,82.359 L99.997,105.996 L99.997,105.996 Z"/>
                    <path d="M48.364,123.65 L72.62,115.357 L64.63,91.627 L40.35,99.837 L48.364,123.65 L48.364,123.65 Z"/>
                    <path d="M82.727,54.7 L106.987,46.417 L99.15,23.142 L74.845,31.285 L82.727,54.7 L82.727,54.7 Z"/>
                    <path d="M31.088,72.33 L55.348,64.047 L47.415,40.475 L23.11,48.617 L31.088,72.33 L31.088,72.33 L31.088,72.33 Z"/>
                </g>
            </g>
        </g>
    </g>
</svg>
